Newaita-dark/apps/64/DV_Resolve.svg

<svg height="64" viewBox="0 0 64 64" width="64" xmlns="http://www.w3.org/2000/svg" xmlns:xlink="http://www.w3.org/1999/xlink"><linearGradient id="a"><stop offset="0" stop-opacity=".313726"/><stop offset=".222222" stop-opacity=".27451"/><stop offset="1" stop-opacity="0"/></linearGradient><radialGradient id="b" cx="450.908936" cy="189.579361" gradientTransform="matrix(.00000035 -.156265 -.281277 -.0000002 89.046303 127.190666)" gradientUnits="userSpaceOnUse" r="21.166656" xlink:href="#a"/><radialGradient id="c" cx="450.908936" cy="189.579361" gradientTransform="matrix(-.00000035 .156265 .281277 .0000002 -25.540238 -15.054957)" gradientUnits="userSpaceOnUse" r="21.166656" xlink:href="#a"/><radialGradient id="d" cx="450.908936" cy="189.579361" gradientTransform="matrix(-.00000035 -.156265 .281277 -.0000002 -25.540238 127.190666)" gradientUnits="userSpaceOnUse" r="21.166656" xlink:href="#a"/><radialGradient id="e" cx="450.908936" cy="189.579361" gradientTransform="matrix(.00000035 .156265 -.281277 .0000002 89.0463 -15.054958)" gradientUnits="userSpaceOnUse" r="21.166656" xlink:href="#a"/><linearGradient id="f" gradientTransform="matrix(.0267201 0 0 .125012 24.930772 26.877575)" gradientUnits="userSpaceOnUse" x1="255.323059" x2="255.323044" y1="233.5" y2="254.666656"><stop offset="0" stop-opacity=".27451"/><stop offset="1" stop-opacity="0"/></linearGradient><linearGradient id="g" gradientUnits="userSpaceOnUse" x1="31.75305" x2="31.75305" y1="5.79221499994" y2="56.067875"><stop offset="0" stop-color="#616161"/><stop offset="1" stop-color="#424242"/></linearGradient><linearGradient id="h" gradientUnits="userSpaceOnUse" x1="31.753048" x2="31.753048" y1="5.79220799994" y2="29.60699475001"><stop offset="0" stop-color="#4fc3f7"/><stop offset="1" stop-color="#29b6f6"/></linearGradient><linearGradient id="i" gradientUnits="userSpaceOnUse" x1="48.95261700013" x2="31.753048" y1="44.160475" y2="30.93003850002"><stop offset="0" stop-color="#f44336"/><stop offset="1" stop-color="#ef5350"/></linearGradient><linearGradient id="j" gradientUnits="userSpaceOnUse" x1="13.23043800013" x2="31.753048" y1="41.51438900013" y2="30.93003799997"><stop offset="0" stop-color="#ffa726"/><stop offset="1" stop-color="#ffb74d"/></linearGradient><path d="m36.382812 56.066406h5.292969v-2.644531h-5.292969zm0 0" fill="url(#b)"/><path d="m27.121094 56.066406h-5.289063v2.648438h5.289063zm0 0" fill="url(#c)"/><path d="m27.121094 56.066406h-5.289063v-2.644531h5.289063zm0 0" fill="url(#d)"/><path d="m36.382812 56.066406h5.292969v2.648438h-5.292969zm0 0" fill="url(#e)"/><path d="m27.121094 55.40625h9.261718v3.308594h-9.261718zm0 0" fill="url(#f)"/><path d="m31.753906 5.792969c13.882813 0 25.136719 11.253906 25.136719 25.136719 0 13.882812-11.253906 25.136718-25.136719 25.136718-13.882812 0-25.140625-11.253906-25.140625-25.136718 0-13.882813 11.257813-25.136719 25.140625-25.136719zm0 0" fill="url(#g)"/><path d="m31.753906 56.066406c-13.925781 0-25.140625-11.210937-25.140625-25.136718 0-.082032.003907-.164063.003907-.246094.128906 13.8125 11.292968 24.890625 25.136718 24.890625s25.003906-11.078125 25.136719-24.890625v.246094c0 13.925781-11.210937 25.136718-25.136719 25.136718zm0 0" fill-opacity=".196078"/><path d="m31.753906 5.792969c-13.925781 0-25.140625 11.210937-25.140625 25.136719 0 .082031.003907.164062.003907.246093.128906-13.8125 11.292968-24.890625 25.136718-24.890625s25.003906 11.078125 25.136719 24.890625c0-.082031 0-.164062 0-.246093 0-13.925782-11.210937-25.136719-25.136719-25.136719zm0 0" fill="#fff" fill-opacity=".392157"/><path d="m31.753906 5.605469c-14.027344 0-25.328125 11.296875-25.328125 25.324219 0 14.027343 11.300781 25.324218 25.328125 25.324218s25.324219-11.296875 25.324219-25.324218c0-14.027344-11.296875-25.324219-25.324219-25.324219zm0 .375c13.824219 0 24.949219 11.125 24.949219 24.949219 0 13.824218-11.125 24.949218-24.949219 24.949218-13.828125 0-24.953125-11.125-24.953125-24.949218 0-13.824219 11.125-24.949219 24.953125-24.949219zm0 0" fill="#212121"/><path d="m38.367188 17.703125c0-3.664063-2.949219-6.613281-6.613282-6.613281-3.664062 0-6.617187 2.949218-6.617187 6.613281 0 6.617187 4.960937 12.035156 6.617187 12.011719 1.652344-.023438 6.613282-5.394532 6.613282-12.011719zm0 0" fill="url(#h)"/><path d="m39.902344 43.277344c3.171875 1.832031 7.203125.75 9.035156-2.421875 1.832031-3.175781.753906-7.207031-2.421875-9.039063-5.726563-3.304687-12.902344-1.71875-13.707031-.273437-.808594 1.441406 1.363281 8.425781 7.09375 11.734375zm0 0" fill="url(#i)"/><path d="m16.988281 31.816406c-3.171875 1.832032-4.253906 5.863282-2.417969 9.039063 1.832032 3.171875 5.859376 4.253906 9.035157 2.421875 5.730469-3.308594 7.941406-10.316406 7.09375-11.734375-.847657-1.421875-7.980469-3.03125-13.710938.273437zm0 0" fill="url(#j)"/><g fill="#fff" fill-opacity=".392157"><path d="m31.753906 11.089844c-3.664062 0-6.617187 2.949218-6.617187 6.613281 0 .132813.003906.261719.007812.386719.140625-3.535156 3.035157-6.34375 6.609375-6.34375 3.574219 0 6.46875 2.808594 6.609375 6.34375.003907-.125.003907-.253906.003907-.386719 0-3.664063-2.949219-6.613281-6.613282-6.613281zm0 0"/><path d="m38.820312 29.863281c-3.089843.007813-5.558593.867188-6.011718 1.679688-.140625.25-.191406.664062-.148438 1.199219.023438-.226563.070313-.410157.148438-.542969.804687-1.445313 7.980468-3.03125 13.707031.273437 2.027344 1.171875 3.199219 3.234375 3.304687 5.402344.121094-2.398438-1.074218-4.769531-3.304687-6.058594-2.507813-1.445312-5.289063-1.957031-7.695313-1.953125zm0 0"/><path d="m24.671875 29.871094c-2.402344-.007813-5.175781.5-7.683594 1.945312-2.226562 1.289063-3.421875 3.660156-3.304687 6.058594.109375-2.167969 1.28125-4.230469 3.304687-5.402344 5.730469-3.304687 12.863281-1.695312 13.710938-.273437.082031.136719.136719.328125.160156.566406.042969-.546875-.011719-.972656-.160156-1.222656-.476563-.800781-2.941407-1.660157-6.027344-1.671875zm0 0"/></g><path d="m38.347656 18.414062c-.332031 6.285157-5 11.277344-6.59375 11.300782-1.59375.023437-6.265625-5.011719-6.597656-11.300782-.011719.167969-.019531.335938-.019531.507813 0 6.613281 4.960937 12.035156 6.617187 12.007813 1.652344-.023438 6.613282-5.394532 6.613282-12.007813 0-.171875-.003907-.339844-.019532-.507813zm0 0" fill-opacity=".235294"/><path d="m32.695312 33.070312c-.421874 1.949219 1.816407 8.308594 7.207032 11.421876 3.171875 1.832031 7.203125.75 9.035156-2.421876.714844-1.238281.984375-2.605468.863281-3.921874-.085937.925781-.367187 1.847656-.863281 2.707031-1.832031 3.171875-5.863281 4.253906-9.035156 2.421875-4.542969-2.625-6.847656-7.554688-7.207032-10.207032zm0 0" fill-opacity=".235294"/><path d="m30.824219 33.09375c-.363281 2.652344-2.695313 7.570312-7.21875 10.183594-3.175781 1.832031-7.203125.75-9.035157-2.421875-.496093-.859375-.78125-1.78125-.867187-2.707031-.121094 1.316406.152344 2.683593.867187 3.921874 1.832032 3.171876 5.859376 4.253907 9.035157 2.421876 5.367187-3.097657 7.648437-9.441407 7.21875-11.398438zm0 0" fill-opacity=".235294"/><path d="m306.908192-73.388523c0-29.309701-23.591497-52.901198-52.901198-52.901198-29.309702 0-52.932446 23.591497-52.932446 52.901198 0 52.932445 39.683711 96.272056 52.932446 96.084574 13.217487-.187482 52.901198-43.152129 52.901198-96.084574zm0 0" fill="none" stroke="#212121" stroke-linecap="round" stroke-linejoin="round" stroke-width="3" transform="matrix(.125012 0 0 .125012 0 26.877566)"/><path d="m319.188269 131.185691c25.372577 14.65485 57.619498 5.999427 72.274348-19.37315 14.654851-25.403824 6.030674-57.650745-19.37315-72.305595-45.808125-26.434976-103.208894-13.748687-109.645779-2.187291-6.468132 11.530149 10.905208 67.399813 56.744581 93.866036zm0 0" fill="none" stroke="#212121" stroke-linecap="round" stroke-linejoin="round" stroke-width="3" transform="matrix(.125012 0 0 .125012 0 26.877566)"/><path d="m135.893273 39.506946c-25.372577 14.65485-34.028001 46.901771-19.341903 72.305595 14.65485 25.372577 46.870524 34.028 72.274348 19.37315 45.839373-26.466223 63.525184-82.523369 56.744581-93.866036-6.780602-11.373914-63.837654-24.247685-109.677026 2.187291zm0 0" fill="none" stroke="#212121" stroke-linecap="round" stroke-linejoin="round" stroke-width="3" transform="matrix(.125012 0 0 .125012 0 26.877566)"/></svg>

<?xml version="1.0" encoding="UTF-8"?>
<svg xmlns="http://www.w3.org/2000/svg" xmlns:xlink="http://www.w3.org/1999/xlink" width="64px" height="64px" viewBox="0 0 64 64" version="1.1">
<defs>
<radialGradient id="radial0" gradientUnits="userSpaceOnUse" cx="450.908936" cy="189.579361" fx="450.908936" fy="189.579361" r="21.166656" gradientTransform="matrix(0.000000348341,-0.156265,-0.281277,-0.000000203077,89.046303,127.190666)">
<stop offset="0" style="stop-color:rgb(0%,0%,0%);stop-opacity:0.313726;"/>
<stop offset="0.222222" style="stop-color:rgb(0%,0%,0%);stop-opacity:0.27451;"/>
<stop offset="1" style="stop-color:rgb(0%,0%,0%);stop-opacity:0;"/>
</radialGradient>
<radialGradient id="radial1" gradientUnits="userSpaceOnUse" cx="450.908936" cy="189.579361" fx="450.908936" fy="189.579361" r="21.166656" gradientTransform="matrix(-0.000000348341,0.156265,0.281277,0.000000203077,-25.540238,-15.054957)">
<stop offset="0" style="stop-color:rgb(0%,0%,0%);stop-opacity:0.313726;"/>
<stop offset="0.222222" style="stop-color:rgb(0%,0%,0%);stop-opacity:0.27451;"/>
<stop offset="1" style="stop-color:rgb(0%,0%,0%);stop-opacity:0;"/>
</radialGradient>
<radialGradient id="radial2" gradientUnits="userSpaceOnUse" cx="450.908936" cy="189.579361" fx="450.908936" fy="189.579361" r="21.166656" gradientTransform="matrix(-0.000000348341,-0.156265,0.281277,-0.000000203077,-25.540238,127.190666)">
<stop offset="0" style="stop-color:rgb(0%,0%,0%);stop-opacity:0.313726;"/>
<stop offset="0.222222" style="stop-color:rgb(0%,0%,0%);stop-opacity:0.27451;"/>
<stop offset="1" style="stop-color:rgb(0%,0%,0%);stop-opacity:0;"/>
</radialGradient>
<radialGradient id="radial3" gradientUnits="userSpaceOnUse" cx="450.908936" cy="189.579361" fx="450.908936" fy="189.579361" r="21.166656" gradientTransform="matrix(0.000000348341,0.156265,-0.281277,0.000000203077,89.0463,-15.054958)">
<stop offset="0" style="stop-color:rgb(0%,0%,0%);stop-opacity:0.313726;"/>
<stop offset="0.222222" style="stop-color:rgb(0%,0%,0%);stop-opacity:0.27451;"/>
<stop offset="1" style="stop-color:rgb(0%,0%,0%);stop-opacity:0;"/>
</radialGradient>
<linearGradient id="linear0" gradientUnits="userSpaceOnUse" x1="255.323059" y1="233.5" x2="255.323044" y2="254.666656" gradientTransform="matrix(0.0267201,0,0,0.125012,24.930772,26.877575)">
<stop offset="0" style="stop-color:rgb(0%,0%,0%);stop-opacity:0.27451;"/>
<stop offset="1" style="stop-color:rgb(0%,0%,0%);stop-opacity:0;"/>
</linearGradient>
<linearGradient id="linear1" gradientUnits="userSpaceOnUse" x1="254" y1="-168.666672" x2="254" y2="233.5" gradientTransform="matrix(0.125012,0,0,0.125012,0.00000246274,26.877573)">
<stop offset="0" style="stop-color:rgb(38.039216%,38.039216%,38.039216%);stop-opacity:1;"/>
<stop offset="1" style="stop-color:rgb(25.882354%,25.882354%,25.882354%);stop-opacity:1;"/>
</linearGradient>
<linearGradient id="linear2" gradientUnits="userSpaceOnUse" x1="254" y1="-168.666672" x2="254" y2="21.833334" gradientTransform="matrix(0.125012,0,0,0.125012,0,26.877566)">
<stop offset="0" style="stop-color:rgb(30.980393%,76.47059%,96.862745%);stop-opacity:1;"/>
<stop offset="1" style="stop-color:rgb(16.078432%,71.372551%,96.470588%);stop-opacity:1;"/>
</linearGradient>
<linearGradient id="linear3" gradientUnits="userSpaceOnUse" x1="391.583344" y1="138.25" x2="254" y2="32.416668" gradientTransform="matrix(0.125012,0,0,0.125012,0,26.877566)">
<stop offset="0" style="stop-color:rgb(95.686275%,26.274511%,21.176471%);stop-opacity:1;"/>
<stop offset="1" style="stop-color:rgb(93.725491%,32.549021%,31.37255%);stop-opacity:1;"/>
</linearGradient>
<linearGradient id="linear4" gradientUnits="userSpaceOnUse" x1="105.833344" y1="117.083344" x2="254" y2="32.416664" gradientTransform="matrix(0.125012,0,0,0.125012,0,26.877566)">
<stop offset="0" style="stop-color:rgb(100%,65.490198%,14.901961%);stop-opacity:1;"/>
<stop offset="1" style="stop-color:rgb(100%,71.764708%,30.19608%);stop-opacity:1;"/>
</linearGradient>
</defs>
<g id="surface1">
<path style=" stroke:none;fill-rule:nonzero;fill:url(#radial0);" d="M 36.382812 56.066406 L 41.675781 56.066406 L 41.675781 53.421875 L 36.382812 53.421875 Z M 36.382812 56.066406 "/>
<path style=" stroke:none;fill-rule:nonzero;fill:url(#radial1);" d="M 27.121094 56.066406 L 21.832031 56.066406 L 21.832031 58.714844 L 27.121094 58.714844 Z M 27.121094 56.066406 "/>
<path style=" stroke:none;fill-rule:nonzero;fill:url(#radial2);" d="M 27.121094 56.066406 L 21.832031 56.066406 L 21.832031 53.421875 L 27.121094 53.421875 Z M 27.121094 56.066406 "/>
<path style=" stroke:none;fill-rule:nonzero;fill:url(#radial3);" d="M 36.382812 56.066406 L 41.675781 56.066406 L 41.675781 58.714844 L 36.382812 58.714844 Z M 36.382812 56.066406 "/>
<path style=" stroke:none;fill-rule:nonzero;fill:url(#linear0);" d="M 27.121094 55.40625 L 36.382812 55.40625 L 36.382812 58.714844 L 27.121094 58.714844 Z M 27.121094 55.40625 "/>
<path style=" stroke:none;fill-rule:nonzero;fill:url(#linear1);" d="M 31.753906 5.792969 C 45.636719 5.792969 56.890625 17.046875 56.890625 30.929688 C 56.890625 44.8125 45.636719 56.066406 31.753906 56.066406 C 17.871094 56.066406 6.613281 44.8125 6.613281 30.929688 C 6.613281 17.046875 17.871094 5.792969 31.753906 5.792969 Z M 31.753906 5.792969 "/>
<path style=" stroke:none;fill-rule:nonzero;fill:rgb(0%,0%,0%);fill-opacity:0.196078;" d="M 31.753906 56.066406 C 17.828125 56.066406 6.613281 44.855469 6.613281 30.929688 C 6.613281 30.847656 6.617188 30.765625 6.617188 30.683594 C 6.746094 44.496094 17.910156 55.574219 31.753906 55.574219 C 45.597656 55.574219 56.757812 44.496094 56.890625 30.683594 C 56.890625 30.765625 56.890625 30.847656 56.890625 30.929688 C 56.890625 44.855469 45.679688 56.066406 31.753906 56.066406 Z M 31.753906 56.066406 "/>
<path style=" stroke:none;fill-rule:nonzero;fill:rgb(100%,100%,100%);fill-opacity:0.392157;" d="M 31.753906 5.792969 C 17.828125 5.792969 6.613281 17.003906 6.613281 30.929688 C 6.613281 31.011719 6.617188 31.09375 6.617188 31.175781 C 6.746094 17.363281 17.910156 6.285156 31.753906 6.285156 C 45.597656 6.285156 56.757812 17.363281 56.890625 31.175781 C 56.890625 31.09375 56.890625 31.011719 56.890625 30.929688 C 56.890625 17.003906 45.679688 5.792969 31.753906 5.792969 Z M 31.753906 5.792969 "/>
<path style=" stroke:none;fill-rule:nonzero;fill:rgb(12.941177%,12.941177%,12.941177%);fill-opacity:1;" d="M 31.753906 5.605469 C 17.726562 5.605469 6.425781 16.902344 6.425781 30.929688 C 6.425781 44.957031 17.726562 56.253906 31.753906 56.253906 C 45.78125 56.253906 57.078125 44.957031 57.078125 30.929688 C 57.078125 16.902344 45.78125 5.605469 31.753906 5.605469 Z M 31.753906 5.980469 C 45.578125 5.980469 56.703125 17.105469 56.703125 30.929688 C 56.703125 44.753906 45.578125 55.878906 31.753906 55.878906 C 17.925781 55.878906 6.800781 44.753906 6.800781 30.929688 C 6.800781 17.105469 17.925781 5.980469 31.753906 5.980469 Z M 31.753906 5.980469 "/>
<path style=" stroke:none;fill-rule:nonzero;fill:url(#linear2);" d="M 38.367188 17.703125 C 38.367188 14.039062 35.417969 11.089844 31.753906 11.089844 C 28.089844 11.089844 25.136719 14.039062 25.136719 17.703125 C 25.136719 24.320312 30.097656 29.738281 31.753906 29.714844 C 33.40625 29.691406 38.367188 24.320312 38.367188 17.703125 Z M 38.367188 17.703125 "/>
<path style=" stroke:none;fill-rule:nonzero;fill:url(#linear3);" d="M 39.902344 43.277344 C 43.074219 45.109375 47.105469 44.027344 48.9375 40.855469 C 50.769531 37.679688 49.691406 33.648438 46.515625 31.816406 C 40.789062 28.511719 33.613281 30.097656 32.808594 31.542969 C 32 32.984375 34.171875 39.96875 39.902344 43.277344 Z M 39.902344 43.277344 "/>
<path style=" stroke:none;fill-rule:nonzero;fill:url(#linear4);" d="M 16.988281 31.816406 C 13.816406 33.648438 12.734375 37.679688 14.570312 40.855469 C 16.402344 44.027344 20.429688 45.109375 23.605469 43.277344 C 29.335938 39.96875 31.546875 32.960938 30.699219 31.542969 C 29.851562 30.121094 22.71875 28.511719 16.988281 31.816406 Z M 16.988281 31.816406 "/>
<path style=" stroke:none;fill-rule:nonzero;fill:rgb(100%,100%,100%);fill-opacity:0.392157;" d="M 31.753906 11.089844 C 28.089844 11.089844 25.136719 14.039062 25.136719 17.703125 C 25.136719 17.835938 25.140625 17.964844 25.144531 18.089844 C 25.285156 14.554688 28.179688 11.746094 31.753906 11.746094 C 35.328125 11.746094 38.222656 14.554688 38.363281 18.089844 C 38.367188 17.964844 38.367188 17.835938 38.367188 17.703125 C 38.367188 14.039062 35.417969 11.089844 31.753906 11.089844 Z M 31.753906 11.089844 "/>
<path style=" stroke:none;fill-rule:nonzero;fill:rgb(100%,100%,100%);fill-opacity:0.392157;" d="M 38.820312 29.863281 C 35.730469 29.871094 33.261719 30.730469 32.808594 31.542969 C 32.667969 31.792969 32.617188 32.207031 32.660156 32.742188 C 32.683594 32.515625 32.730469 32.332031 32.808594 32.199219 C 33.613281 30.753906 40.789062 29.167969 46.515625 32.472656 C 48.542969 33.644531 49.714844 35.707031 49.820312 37.875 C 49.941406 35.476562 48.746094 33.105469 46.515625 31.816406 C 44.007812 30.371094 41.226562 29.859375 38.820312 29.863281 Z M 38.820312 29.863281 "/>
<path style=" stroke:none;fill-rule:nonzero;fill:rgb(100%,100%,100%);fill-opacity:0.392157;" d="M 24.671875 29.871094 C 22.269531 29.863281 19.496094 30.371094 16.988281 31.816406 C 14.761719 33.105469 13.566406 35.476562 13.683594 37.875 C 13.792969 35.707031 14.964844 33.644531 16.988281 32.472656 C 22.71875 29.167969 29.851562 30.777344 30.699219 32.199219 C 30.78125 32.335938 30.835938 32.527344 30.859375 32.765625 C 30.902344 32.21875 30.847656 31.792969 30.699219 31.542969 C 30.222656 30.742188 27.757812 29.882812 24.671875 29.871094 Z M 24.671875 29.871094 "/>
<path style=" stroke:none;fill-rule:nonzero;fill:rgb(0%,0%,0%);fill-opacity:0.235294;" d="M 38.347656 18.414062 C 38.015625 24.699219 33.347656 29.691406 31.753906 29.714844 C 30.160156 29.738281 25.488281 24.703125 25.15625 18.414062 C 25.144531 18.582031 25.136719 18.75 25.136719 18.921875 C 25.136719 25.535156 30.097656 30.957031 31.753906 30.929688 C 33.40625 30.90625 38.367188 25.535156 38.367188 18.921875 C 38.367188 18.75 38.363281 18.582031 38.347656 18.414062 Z M 38.347656 18.414062 "/>
<path style=" stroke:none;fill-rule:nonzero;fill:rgb(0%,0%,0%);fill-opacity:0.235294;" d="M 32.695312 33.070312 C 32.273438 35.019531 34.511719 41.378906 39.902344 44.492188 C 43.074219 46.324219 47.105469 45.242188 48.9375 42.070312 C 49.652344 40.832031 49.921875 39.464844 49.800781 38.148438 C 49.714844 39.074219 49.433594 39.996094 48.9375 40.855469 C 47.105469 44.027344 43.074219 45.109375 39.902344 43.277344 C 35.359375 40.652344 33.054688 35.722656 32.695312 33.070312 Z M 32.695312 33.070312 "/>
<path style=" stroke:none;fill-rule:nonzero;fill:rgb(0%,0%,0%);fill-opacity:0.235294;" d="M 30.824219 33.09375 C 30.460938 35.746094 28.128906 40.664062 23.605469 43.277344 C 20.429688 45.109375 16.402344 44.027344 14.570312 40.855469 C 14.074219 39.996094 13.789062 39.074219 13.703125 38.148438 C 13.582031 39.464844 13.855469 40.832031 14.570312 42.070312 C 16.402344 45.242188 20.429688 46.324219 23.605469 44.492188 C 28.972656 41.394531 31.253906 35.050781 30.824219 33.09375 Z M 30.824219 33.09375 "/>
<path style="fill:none;stroke-width:3;stroke-linecap:round;stroke-linejoin:round;stroke:rgb(12.941177%,12.941177%,12.941177%);stroke-opacity:1;stroke-miterlimit:4;" d="M 306.908192 -73.388523 C 306.908192 -102.698224 283.316695 -126.289721 254.006994 -126.289721 C 224.697292 -126.289721 201.074548 -102.698224 201.074548 -73.388523 C 201.074548 -20.456078 240.758259 22.883533 254.006994 22.696051 C 267.224481 22.508569 306.908192 -20.456078 306.908192 -73.388523 Z M 306.908192 -73.388523 " transform="matrix(0.125012,0,0,0.125012,0,26.877566)"/>
<path style="fill:none;stroke-width:3;stroke-linecap:round;stroke-linejoin:round;stroke:rgb(12.941177%,12.941177%,12.941177%);stroke-opacity:1;stroke-miterlimit:4;" d="M 319.188269 131.185691 C 344.560846 145.840541 376.807767 137.185118 391.462617 111.812541 C 406.117468 86.408717 397.493291 54.161796 372.089467 39.506946 C 326.281342 13.07197 268.880573 25.758259 262.443688 37.319655 C 255.975556 48.849804 273.348896 104.719468 319.188269 131.185691 Z M 319.188269 131.185691 " transform="matrix(0.125012,0,0,0.125012,0,26.877566)"/>
<path style="fill:none;stroke-width:3;stroke-linecap:round;stroke-linejoin:round;stroke:rgb(12.941177%,12.941177%,12.941177%);stroke-opacity:1;stroke-miterlimit:4;" d="M 135.893273 39.506946 C 110.520696 54.161796 101.865272 86.408717 116.55137 111.812541 C 131.20622 137.185118 163.421894 145.840541 188.825718 131.185691 C 234.665091 104.719468 252.350902 48.662322 245.570299 37.319655 C 238.789697 25.945741 181.732645 13.07197 135.893273 39.506946 Z M 135.893273 39.506946 " transform="matrix(0.125012,0,0,0.125012,0,26.877566)"/>
</g>
</svg>
